images/indikatorenset/5865.svg

<?xml version="1.0" standalone="no"?><!DOCTYPE svg PUBLIC "-//W3C//DTD SVG 1.1//EN" "http://www.w3.org/Graphics/SVG/1.1/DTD/svg11.dtd"><svg xmlns:xlink="http://www.w3.org/1999/xlink" version="1.1" class="highcharts-root" style="font-family:arial;font-size:12px;" xmlns="http://www.w3.org/2000/svg" viewBox="0 0 665 208"><desc>Created with Highstock 5.0.14</desc><defs><clipPath id="highcharts-oumhtxz-6"><rect x="0" y="0" width="453" height="136" fill="none"></rect></clipPath><clipPath id="highcharts-oumhtxz-7"><rect x="0" y="0" width="453" height="136" fill="none"></rect></clipPath></defs><rect fill="#fbfbfb" class="highcharts-background" x="0" y="0" width="665" height="208" rx="0" ry="0"></rect><rect fill="none" class="highcharts-plot-background" x="52" y="43" width="453" height="136"></rect><g class="highcharts-pane-group"></g><g class="highcharts-grid highcharts-xaxis-grid "><path fill="none" class="highcharts-grid-line" d="M 75.5 43 L 75.5 179" opacity="1"></path><path fill="none" class="highcharts-grid-line" d="M 116.5 43 L 116.5 179" opacity="1"></path><path fill="none" class="highcharts-grid-line" d="M 156.5 43 L 156.5 179" opacity="1"></path><path fill="none" class="highcharts-grid-line" d="M 197.5 43 L 197.5 179" opacity="1"></path><path fill="none" class="highcharts-grid-line" d="M 237.5 43 L 237.5 179" opacity="1"></path><path fill="none" class="highcharts-grid-line" d="M 278.5 43 L 278.5 179" opacity="1"></path><path fill="none" class="highcharts-grid-line" d="M 318.5 43 L 318.5 179" opacity="1"></path><path fill="none" class="highcharts-grid-line" d="M 358.5 43 L 358.5 179" opacity="1"></path><path fill="none" class="highcharts-grid-line" d="M 399.5 43 L 399.5 179" opacity="1"></path><path fill="none" class="highcharts-grid-line" d="M 439.5 43 L 439.5 179" opacity="1"></path><path fill="none" class="highcharts-grid-line" d="M 480.5 43 L 480.5 179" opacity="1"></path></g><g class="highcharts-grid highcharts-yaxis-grid "><path fill="none" stroke="#B9CFD7" stroke-width="0.5" class="highcharts-grid-line" d="M 52 179.25 L 505 179.25" opacity="1"></path><path fill="none" stroke="#B9CFD7" stroke-width="0.5" class="highcharts-grid-line" d="M 52 145.25 L 505 145.25" opacity="1"></path><path fill="none" stroke="#B9CFD7" stroke-width="0.5" class="highcharts-grid-line" d="M 52 111.25 L 505 111.25" opacity="1"></path><path fill="none" stroke="#B9CFD7" stroke-width="0.5" class="highcharts-grid-line" d="M 52 77.25 L 505 77.25" opacity="1"></path><path fill="none" stroke="#B9CFD7" stroke-width="0.5" class="highcharts-grid-line" d="M 52 42.75 L 505 42.75" opacity="1"></path></g><rect fill="none" class="highcharts-plot-border" x="52" y="43" width="453" height="136"></rect><g class="highcharts-axis highcharts-xaxis "><path fill="none" class="highcharts-axis-line" stroke="#B9CFD7" stroke-width="0.5" d="M 52 179.25 L 505 179.25"></path></g><g class="highcharts-axis highcharts-yaxis "><path fill="none" class="highcharts-axis-line" d="M 52 43 L 52 179"></path></g><g class="highcharts-series-group"><g class="highcharts-series highcharts-series-0 highcharts-column-series highcharts-color-undefined " transform="translate(52,43) scale(1 1)" clip-path="url(#highcharts-oumhtxz-7)"><rect x="17" y="28" width="15" height="19" fill="#246370" class="highcharts-point"></rect><rect x="57" y="26" width="15" height="19" fill="#246370" class="highcharts-point"></rect><rect x="98" y="21" width="15" height="22" fill="#246370" class="highcharts-point"></rect><rect x="138" y="24" width="15" height="20" fill="#246370" class="highcharts-point"></rect><rect x="179" y="23" width="15" height="21" fill="#246370" class="highcharts-point"></rect><rect x="219" y="21" width="15" height="21" fill="#246370" class="highcharts-point"></rect><rect x="259" y="22" width="15" height="20" fill="#246370" class="highcharts-point"></rect><rect x="300" y="18" width="15" height="21" fill="#246370" class="highcharts-point"></rect><rect x="340" y="23" width="15" height="19" fill="#246370" class="highcharts-point"></rect><rect x="381" y="21" width="15" height="21" fill="#246370" class="highcharts-point"></rect><rect x="421" y="19" width="15" height="22" fill="#246370" class="highcharts-point"></rect></g><g class="highcharts-markers highcharts-series-0 highcharts-column-series highcharts-color-undefined " transform="translate(52,43) scale(1 1)" clip-path="none"></g><g class="highcharts-series highcharts-series-1 highcharts-column-series highcharts-color-undefined " transform="translate(52,43) scale(1 1)" clip-path="url(#highcharts-oumhtxz-7)"><rect x="17" y="82" width="15" height="24" fill="#007A2F" class="highcharts-point highcharts-negative"></rect><rect x="57" y="82" width="15" height="25" fill="#007A2F" class="highcharts-point highcharts-negative"></rect><rect x="98" y="82" width="15" height="24" fill="#007A2F" class="highcharts-point highcharts-negative"></rect><rect x="138" y="82" width="15" height="24" fill="#007A2F" class="highcharts-point highcharts-negative"></rect><rect x="179" y="83" width="15" height="22" fill="#007A2F" class="highcharts-point highcharts-negative"></rect><rect x="219" y="84" width="15" height="23" fill="#007A2F" class="highcharts-point highcharts-negative"></rect><rect x="259" y="84" width="15" height="22" fill="#007A2F" class="highcharts-point highcharts-negative"></rect><rect x="300" y="85" width="15" height="24" fill="#007A2F" class="highcharts-point highcharts-negative"></rect><rect x="340" y="85" width="15" height="23" fill="#007A2F" class="highcharts-point highcharts-negative"></rect><rect x="381" y="86" width="15" height="24" fill="#007A2F" class="highcharts-point highcharts-negative"></rect><rect x="421" y="86" width="15" height="26" fill="#007A2F" class="highcharts-point highcharts-negative"></rect></g><g class="highcharts-markers highcharts-series-1 highcharts-column-series highcharts-color-undefined " transform="translate(52,43) scale(1 1)" clip-path="none"></g><g class="highcharts-series highcharts-series-2 highcharts-column-series highcharts-color-undefined " transform="translate(52,43) scale(1 1)" clip-path="url(#highcharts-oumhtxz-7)"><rect x="17" y="47" width="15" height="22" fill="#A8C3CA" class="highcharts-point"></rect><rect x="57" y="45" width="15" height="24" fill="#A8C3CA" class="highcharts-point"></rect><rect x="98" y="43" width="15" height="26" fill="#A8C3CA" class="highcharts-point"></rect><rect x="138" y="44" width="15" height="25" fill="#A8C3CA" class="highcharts-point"></rect><rect x="179" y="44" width="15" height="25" fill="#A8C3CA" class="highcharts-point"></rect><rect x="219" y="42" width="15" height="27" fill="#A8C3CA" class="highcharts-point"></rect><rect x="259" y="42" width="15" height="27" fill="#A8C3CA" class="highcharts-point"></rect><rect x="300" y="39" width="15" height="30" fill="#A8C3CA" class="highcharts-point"></rect><rect x="340" y="42" width="15" height="27" fill="#A8C3CA" class="highcharts-point"></rect><rect x="381" y="42" width="15" height="27" fill="#A8C3CA" class="highcharts-point"></rect><rect x="421" y="41" width="15" height="28" fill="#A8C3CA" class="highcharts-point"></rect></g><g class="highcharts-markers highcharts-series-2 highcharts-column-series highcharts-color-undefined " transform="translate(52,43) scale(1 1)" clip-path="none"></g><g class="highcharts-series highcharts-series-3 highcharts-column-series highcharts-color-undefined " transform="translate(52,43) scale(1 1)" clip-path="url(#highcharts-oumhtxz-7)"><rect x="17" y="69" width="15" height="13" fill="#8AB77D" class="highcharts-point highcharts-negative"></rect><rect x="57" y="69" width="15" height="13" fill="#8AB77D" class="highcharts-point highcharts-negative"></rect><rect x="98" y="69" width="15" height="13" fill="#8AB77D" class="highcharts-point highcharts-negative"></rect><rect x="138" y="69" width="15" height="13" fill="#8AB77D" class="highcharts-point highcharts-negative"></rect><rect x="179" y="69" width="15" height="14" fill="#8AB77D" class="highcharts-point highcharts-negative"></rect><rect x="219" y="69" width="15" height="15" fill="#8AB77D" class="highcharts-point highcharts-negative"></rect><rect x="259" y="69" width="15" height="15" fill="#8AB77D" class="highcharts-point highcharts-negative"></rect><rect x="300" y="69" width="15" height="16" fill="#8AB77D" class="highcharts-point highcharts-negative"></rect><rect x="340" y="69" width="15" height="16" fill="#8AB77D" class="highcharts-point highcharts-negative"></rect><rect x="381" y="69" width="15" height="17" fill="#8AB77D" class="highcharts-point highcharts-negative"></rect><rect x="421" y="69" width="15" height="17" fill="#8AB77D" class="highcharts-point highcharts-negative"></rect></g><g class="highcharts-markers highcharts-series-3 highcharts-column-series highcharts-color-undefined " transform="translate(52,43) scale(1 1)" clip-path="none"></g><g class="highcharts-series highcharts-series-4 highcharts-line-series highcharts-color-undefined " transform="translate(52,43) scale(1 1)" clip-path="url(#highcharts-oumhtxz-7)"><path fill="none" d="M 24.267857142854 66.66720000000001 L 64.714285714283 66.0994 L 105.16071428571 61.0844 L 145.60714285714 62.3356 L 186.05357142857 67.1058 L 226.5 62.3288 L 266.94642857143 62.0908 L 307.39285714286 61.543400000000005 L 347.83928571429 65.30380000000001 L 388.28571428572 65.5792 L 428.73214285715 64.9332" class="highcharts-graph" stroke="#000000" stroke-width="2" stroke-linejoin="round" stroke-linecap="round"></path></g><g class="highcharts-markers highcharts-series-4 highcharts-line-series highcharts-color-undefined " transform="translate(52,43) scale(1 1)" clip-path="none"></g></g><text x="3" text-anchor="start" class="highcharts-title" style="color:#000000;font-size:10px;font-weight:bold;fill:#000000;" y="22"><tspan>Wanderungssaldo</tspan></text><g class="highcharts-legend" transform="translate(517,57)"><rect fill="none" class="highcharts-legend-box" rx="0" ry="0" x="0" y="0" width="144" height="101" visibility="visible"></rect><g><g><g class="highcharts-legend-item highcharts-column-series highcharts-color-undefined highcharts-series-0" transform="translate(8,3)"><text x="21" style="color:#333333;font-size:10px;font-weight:normal;cursor:pointer;fill:#333333;" text-anchor="start" y="13"><tspan>Zuzug aus der Schweiz</tspan></text><rect x="3" y="4" width="10" height="10" fill="#246370" class="highcharts-point"></rect></g><g class="highcharts-legend-item highcharts-column-series highcharts-color-undefined highcharts-series-1" transform="translate(8,21)"><text x="21" y="13" style="color:#333333;font-size:10px;font-weight:normal;cursor:pointer;fill:#333333;" text-anchor="start"><tspan>Wegzug in die Schweiz</tspan></text><rect x="3" y="4" width="10" height="10" fill="#007A2F" class="highcharts-point"></rect></g><g class="highcharts-legend-item highcharts-column-series highcharts-color-undefined highcharts-series-2" transform="translate(8,39)"><text x="21" y="13" style="color:#333333;font-size:10px;font-weight:normal;cursor:pointer;fill:#333333;" text-anchor="start"><tspan>Zuzug aus dem Ausland</tspan></text><rect x="3" y="4" width="10" height="10" fill="#A8C3CA" class="highcharts-point"></rect></g><g class="highcharts-legend-item highcharts-column-series highcharts-color-undefined highcharts-series-3" transform="translate(8,57)"><text x="21" y="13" style="color:#333333;font-size:10px;font-weight:normal;cursor:pointer;fill:#333333;" text-anchor="start"><tspan>Wegzug ins Ausland</tspan></text><rect x="3" y="4" width="10" height="10" fill="#8AB77D" class="highcharts-point"></rect></g><g class="highcharts-legend-item highcharts-line-series highcharts-color-undefined highcharts-series-4" transform="translate(8,75)"><path fill="none" d="M 0 10 L 16 10" class="highcharts-graph" stroke="#000000" stroke-width="2"></path><text x="21" y="13" style="color:#333333;font-size:10px;font-weight:normal;cursor:pointer;fill:#333333;" text-anchor="start"><tspan>Wanderungssaldo Total</tspan></text></g></g></g></g><g class="highcharts-axis-labels highcharts-xaxis-labels "><text x="76.26785714285386" style="color:#000000;cursor:default;font-size:10;fill:#000000;" text-anchor="middle" transform="translate(0,0)" y="199" opacity="1">2006</text><text x="116.7142857142831" style="color:#000000;cursor:default;font-size:10;fill:#000000;" text-anchor="middle" transform="translate(0,0)" y="199" opacity="1">2007</text><text x="157.16071428571232" style="color:#000000;cursor:default;font-size:10;fill:#000000;" text-anchor="middle" transform="translate(0,0)" y="199" opacity="1">2008</text><text x="197.60714285714155" style="color:#000000;cursor:default;font-size:10;fill:#000000;" text-anchor="middle" transform="translate(0,0)" y="199" opacity="1">2009</text><text x="238.0535714285708" style="color:#000000;cursor:default;font-size:10;fill:#000000;" text-anchor="middle" transform="translate(0,0)" y="199" opacity="1">2010</text><text x="278.5" style="color:#000000;cursor:default;font-size:10;fill:#000000;" text-anchor="middle" transform="translate(0,0)" y="199" opacity="1">2011</text><text x="318.94642857142924" style="color:#000000;cursor:default;font-size:10;fill:#000000;" text-anchor="middle" transform="translate(0,0)" y="199" opacity="1">2012</text><text x="359.3928571428585" style="color:#000000;cursor:default;font-size:10;fill:#000000;" text-anchor="middle" transform="translate(0,0)" y="199" opacity="1">2013</text><text x="399.8392857142877" style="color:#000000;cursor:default;font-size:10;fill:#000000;" text-anchor="middle" transform="translate(0,0)" y="199" opacity="1">2014</text><text x="440.28571428571695" style="color:#000000;cursor:default;font-size:10;fill:#000000;" text-anchor="middle" transform="translate(0,0)" y="199" opacity="1">2015</text><text x="480.7321428571462" style="color:#000000;cursor:default;font-size:10;fill:#000000;" text-anchor="middle" transform="translate(0,0)" y="199" opacity="1">2016</text></g><g class="highcharts-axis-labels highcharts-yaxis-labels "><text x="37" style="color:#000000;cursor:default;font-size:10;fill:#000000;" text-anchor="end" transform="translate(0,0)" y="185" opacity="1"><tspan>-20 000</tspan></text><text x="37" style="color:#000000;cursor:default;font-size:10;fill:#000000;" text-anchor="end" transform="translate(0,0)" y="151" opacity="1"><tspan>-10 000</tspan></text><text x="37" style="color:#000000;cursor:default;font-size:10;fill:#000000;" text-anchor="end" transform="translate(0,0)" y="117" opacity="1"><tspan>0</tspan></text><text x="37" style="color:#000000;cursor:default;font-size:10;fill:#000000;" text-anchor="end" transform="translate(0,0)" y="83" opacity="1"><tspan>10 000</tspan></text><text x="37" style="color:#000000;cursor:default;font-size:10;fill:#000000;" text-anchor="end" transform="translate(0,0)" y="49" opacity="1"><tspan>20 000</tspan></text></g><text x="10" class="highcharts-credits" text-anchor="start" style="cursor:default;color:#000000;font-size:10px;fill:#000000;" y="193"><tspan>Quelle: Statistisches Amt Basel-Stadt, Bevölkerungsstatistik</tspan></text></svg>

<svg class="highcharts-root" xmlns="http://www.w3.org/2000/svg" viewBox="0 0 665 208" font-family="arial" font-size="12">
    <defs>
        <clipPath id="a">
            <path fill="none" d="M0 0h453v136H0z"/>
        </clipPath>
    </defs>
    <rect fill="#fbfbfb" class="highcharts-background" width="665" height="208" rx="0" ry="0"/>
    <path fill="none" class="highcharts-plot-background" d="M52 43h453v136H52z"/>
    <g class="highcharts-grid highcharts-xaxis-grid">
        <path fill="none" class="highcharts-grid-line" d="M75.5 43v136m41-136v136m40-136v136m41-136v136m40-136v136m41-136v136m40-136v136m40-136v136m41-136v136m40-136v136m41-136v136"/>
    </g>
    <g class="highcharts-grid highcharts-yaxis-grid">
        <path fill="none" stroke="#B9CFD7" stroke-width=".5" class="highcharts-grid-line" d="M52 179.25h453m-453-34h453m-453-34h453m-453-34h453M52 42.75h453"/>
    </g>
    <path fill="none" class="highcharts-plot-border" d="M52 43h453v136H52z"/>
    <g class="highcharts-axis highcharts-xaxis">
        <path fill="none" class="highcharts-axis-line" stroke="#B9CFD7" stroke-width=".5" d="M52 179.25h453"/>
    </g>
    <g class="highcharts-axis highcharts-yaxis">
        <path fill="none" class="highcharts-axis-line" d="M52 43v136"/>
    </g>
    <g class="highcharts-series-group">
        <g class="highcharts-series highcharts-series-0 highcharts-column-series highcharts-color-undefined" transform="translate(52 43)" clip-path="url(#a)">
            <path fill="#246370" class="highcharts-point" d="M17 28h15v19H17zm40-2h15v19H57zm41-5h15v22H98zm40 3h15v20h-15zm41-1h15v21h-15zm40-2h15v21h-15zm40 1h15v20h-15zm41-4h15v21h-15zm40 5h15v19h-15zm41-2h15v21h-15zm40-2h15v22h-15z"/>
        </g>
        <g class="highcharts-series highcharts-series-1 highcharts-column-series highcharts-color-undefined" transform="translate(52 43)" clip-path="url(#a)">
            <path fill="#007A2F" class="highcharts-point highcharts-negative" d="M17 82h15v24H17zm40 0h15v25H57zm41 0h15v24H98zm40 0h15v24h-15zm41 1h15v22h-15zm40 1h15v23h-15zm40 0h15v22h-15zm41 1h15v24h-15zm40 0h15v23h-15zm41 1h15v24h-15zm40 0h15v26h-15z"/>
        </g>
        <g class="highcharts-series highcharts-series-2 highcharts-column-series highcharts-color-undefined" transform="translate(52 43)" clip-path="url(#a)">
            <path fill="#A8C3CA" class="highcharts-point" d="M17 47h15v22H17zm40-2h15v24H57zm41-2h15v26H98zm40 1h15v25h-15zm41 0h15v25h-15zm40-2h15v27h-15zm40 0h15v27h-15zm41-3h15v30h-15zm40 3h15v27h-15zm41 0h15v27h-15zm40-1h15v28h-15z"/>
        </g>
        <g class="highcharts-series highcharts-series-3 highcharts-column-series highcharts-color-undefined" transform="translate(52 43)" clip-path="url(#a)">
            <path fill="#8AB77D" class="highcharts-point highcharts-negative" d="M17 69h15v13H17zm40 0h15v13H57zm41 0h15v13H98zm40 0h15v13h-15zm41 0h15v14h-15zm40 0h15v15h-15zm40 0h15v15h-15zm41 0h15v16h-15zm40 0h15v16h-15zm41 0h15v17h-15zm40 0h15v17h-15z"/>
        </g>
        <g class="highcharts-series highcharts-series-4 highcharts-line-series highcharts-color-undefined" transform="translate(52 43)" clip-path="url(#a)">
            <path fill="none" d="M24.268 66.667l40.446-.568 40.447-5.015 40.446 1.252 40.447 4.77 40.446-4.777 40.446-.238 40.447-.548 40.446 3.76 40.447.276 40.446-.646" class="highcharts-graph" stroke="#000" stroke-width="2" stroke-linejoin="round" stroke-linecap="round"/>
        </g>
    </g>
    <text x="3" class="highcharts-title" y="22" color="#000" font-size="10" font-weight="700">
        <tspan>Wanderungssaldo</tspan>
    </text>
    <g class="highcharts-legend" transform="translate(517 57)">
        <rect fill="none" class="highcharts-legend-box" rx="0" ry="0" width="144" height="101"/>
        <g class="highcharts-legend-item highcharts-column-series highcharts-color-undefined highcharts-series-0">
            <text x="21" y="13" color="#333" font-size="10" font-weight="400" cursor="pointer" fill="#333" transform="translate(8 3)">
                <tspan>Zuzug aus der Schweiz</tspan>
            </text>
            <path fill="#246370" class="highcharts-point" d="M11 7h10v10H11z"/>
        </g>
        <g class="highcharts-legend-item highcharts-column-series highcharts-color-undefined highcharts-series-1">
            <text x="21" y="13" color="#333" font-size="10" font-weight="400" cursor="pointer" fill="#333" transform="translate(8 21)">
                <tspan>Wegzug in die Schweiz</tspan>
            </text>
            <path fill="#007A2F" class="highcharts-point" d="M11 25h10v10H11z"/>
        </g>
        <g class="highcharts-legend-item highcharts-column-series highcharts-color-undefined highcharts-series-2">
            <text x="21" y="13" color="#333" font-size="10" font-weight="400" cursor="pointer" fill="#333" transform="translate(8 39)">
                <tspan>Zuzug aus dem Ausland</tspan>
            </text>
            <path fill="#A8C3CA" class="highcharts-point" d="M11 43h10v10H11z"/>
        </g>
        <g class="highcharts-legend-item highcharts-column-series highcharts-color-undefined highcharts-series-3">
            <text x="21" y="13" color="#333" font-size="10" font-weight="400" cursor="pointer" fill="#333" transform="translate(8 57)">
                <tspan>Wegzug ins Ausland</tspan>
            </text>
            <path fill="#8AB77D" class="highcharts-point" d="M11 61h10v10H11z"/>
        </g>
        <g class="highcharts-legend-item highcharts-line-series highcharts-color-undefined highcharts-series-4">
            <path fill="none" d="M8 85h16" class="highcharts-graph" stroke="#000" stroke-width="2"/>
            <text x="21" y="13" color="#333" font-size="10" font-weight="400" cursor="pointer" fill="#333" transform="translate(8 75)">
                <tspan>Wanderungssaldo Total</tspan>
            </text>
        </g>
    </g>
    <g class="highcharts-axis-labels highcharts-xaxis-labels" text-anchor="middle" color="#000" cursor="default" font-size="10">
        <text x="76.268" y="199">
            2006
        </text>
        <text x="116.714" y="199">
            2007
        </text>
        <text x="157.161" y="199">
            2008
        </text>
        <text x="197.607" y="199">
            2009
        </text>
        <text x="238.054" y="199">
            2010
        </text>
        <text x="278.5" y="199">
            2011
        </text>
        <text x="318.946" y="199">
            2012
        </text>
        <text x="359.393" y="199">
            2013
        </text>
        <text x="399.839" y="199">
            2014
        </text>
        <text x="440.286" y="199">
            2015
        </text>
        <text x="480.732" y="199">
            2016
        </text>
    </g>
    <g class="highcharts-axis-labels highcharts-yaxis-labels" text-anchor="end" color="#000" cursor="default" font-size="10">
        <text x="37" y="185">
            <tspan>-20 000</tspan>
        </text>
        <text x="37" y="151">
            <tspan>-10 000</tspan>
        </text>
        <text x="37" y="117">
            <tspan>0</tspan>
        </text>
        <text x="37" y="83">
            <tspan>10 000</tspan>
        </text>
        <text x="37" y="49">
            <tspan>20 000</tspan>
        </text>
    </g>
    <text x="10" class="highcharts-credits" y="193" cursor="default" color="#000" font-size="10">
        <tspan>Quelle: Statistisches Amt Basel-Stadt, Bevölkerungsstatistik</tspan>
    </text>
</svg>
